X: 1207
T: Kapıldım Gidiyorum
C: Kaptanzâde Ali Rıza Bey
O: Turkey
F: http://compmusic.upf.edu/node/140
N: hicaz-humayun--sarki--nimsofyan--kapildim_gidiyorum--kaptanzade_ali_riza_bey
N: makam= hicaz-humayun
N: form= sarki
N: usul= nimsofyan = 2/4
M: 2/4
L: 1/16
K: C _7/8B ^c  
Q: 1/4=76
%%MIDI tuningsystem comma53
a8  | a2ga gfed  | e8  | z2e^f g2e2  | g8  | z2fg fedc  | 
w:  ARANAĞME  |   |   |   |   |   | 
d8  | z2de f2d2  | f8  | z2ef edcd  | c8  | z2Bc B2A2  | \
w:   |   |   |   |   |   | 
z2cd d2dc  | 
w:   | 
B6c2  | A8  | zABc de^fg  | a8  | a2ga gfed  | e8  | \
w:   |   |   |  ARANAĞME  |   |   | 
z2e^f g2e2  | 
w:   | 
g8  | z2fg fedc  | d8  | z2de f2d2  | f8  | z2ef edcd  | 
w:   |   |   |   |   |   | 
c8  | z2Bc B2A2  | z2cd d2dc  | B6c2  | A8  | \
w:   |   |   |   |   | 
zfed cBAB  | 
w:   | 
A2de d2c2  | d2ef edcd  | e8  | zfed cBAB  | 
w:  *  Ka pıl dım  gi  |  di *  *  yo  |  rum   |  SAZ  | 
Af2f f2fe  | e3d fedc  | d8  | zgfe dcd2  | \
w:  *  bah tı mın  rüz  |  gâ *  *  *  rı  |  na    |  SAZ  | 
g3f fed2  | 
w:  Ey  *  u *  fuk  | 
ef2e eddc  | c8  | zdcB ABce  | dc2d d2dc  | 
w:  lar  *  *  di *  yo  |  rum   |  SAZ  |  *  yol cu luk  var   | 
B3A B2c2  | A8  | zfed cBAB  | A2de d2c2  | \
w:  ya *  *  rı  |  na    |  SAZ  |  *  Ka pıl dım  gi  | 
d2ef edcd  | 
w:  di *  *  yo  | 
e8  | zfed cBAB  | Af2f f2fe  | e3d fedc  | 
w:  rum   |  SAZ  |  *  bah tı mın  rüz  |  gâ *  *  *  rı  | 
d8  | zgfe dcd2  | g3f fed2  | ef2e eddc  | c8  | 
w:  na    |  SAZ  |  Ey  *  u *  fuk  |  lar  *  *  di *  yo  |  rum   | 
zdcB ABce  | dc2d d2dc  | B3A B2c2  | A8  | \
w:  SAZ  |  *  yol cu luk  var   |  ya *  *  rı  |  na    | 
zABc de^fg  | 
w:  SAZ  | 
a3g g^ffe  | ede^f gafa  | g8  | zgg{a}^f efg2  | 
w:  Ay *  rı *  lık   |  gö *  *  *  rün *  müş  |  ken   |  SAZ  | 
g3^f fee2  | a3g g^ffe  | e8  | zfed cde2  | \
w:  yâr  *  tut *  mu  |  yor  *  e *  lim  |  den    |  SAZ  | 
dg2f fed2  | 
w:  Mi sa *  fi  | 
ef2e eddc  | c8  | zdcB ABce  | dd2d d2dc  | 
w:  rim  *  *  bu *  gün   |  ben   |  SAZ  |  *  gur bet  ak şam  | 
B6c2  | A8  | zABc de^fg  | a3g g^ffe  | ede^f gafa  | 
w:  la rı  |  na    |  SAZ  |  Ay *  rı *  lık   |  gö *  *  *  rün *  müş  | 
g8  | zgg{a}^f efg2  | g3^f fee2  | a3g g^ffe  | e8  | \
w:  ken   |  SAZ  |  yâr  *  tut *  mu  |  yor  *  e *  lim  |  den    | 
zfed cde2  | 
w:  SAZ  | 
dg2f fed2  | ef2e eddc  | c8  | zdcB ABce  | 
w:  Mi sa *  fi  |  rim  *  *  bu *  gün   |  ben   |  SAZ  | 
dd2d d2dc  | B6c2  | A8  | A8  | |


